packages/bezier-icons/icons/call-meet.svg

<svg width="24" height="24" viewBox="0 0 24 24" fill="none" xmlns="http://www.w3.org/2000/svg">
<path fill-rule="evenodd" clip-rule="evenodd" d="M16 3C16 2.44772 16.4477 2 17 2C17.5523 2 18 2.44772 18 3V11C18 11.5523 17.5523 12 17 12C16.4477 12 16 11.5523 16 11V3ZM13 5C13 4.44772 13.4477 4 14 4C14.5523 4 15 4.44772 15 5V9C15 9.55228 14.5523 10 14 10C13.4477 10 13 9.55228 13 9V5ZM20 5C19.4477 5 19 5.44772 19 6V8C19 8.55228 19.4477 9 20 9C20.5523 9 21 8.55228 21 8V6C21 5.44772 20.5523 5 20 5ZM7.75088 16.2532C2.58593 11.0883 2.58593 6.56896 4.19998 4.95491C5.16841 3.98648 6.58425 3.72371 7.42807 4.30928C8.20282 4.82579 9.36494 6.28347 9.36493 7.53739C9.36493 8.29362 8.80701 8.94392 8.34719 9.47987C8.0219 9.85903 7.7457 10.181 7.75088 10.4427C7.76339 11.0743 8.45799 12.7177 9.8722 14.1319C11.2864 15.5461 12.9298 16.2407 13.5615 16.2532C13.8232 16.2584 14.1451 15.9822 14.5243 15.6569C15.0602 15.1971 15.7105 14.6392 16.4667 14.6392C17.7207 14.6392 19.1783 15.8013 19.6948 16.5761C20.2804 17.4199 20.0176 18.8357 19.0492 19.8042C17.4352 21.4182 12.9158 21.4182 7.75088 16.2532Z" fill="#313234"/>
</svg>

<svg xmlns="http://www.w3.org/2000/svg" width="24" height="24" fill="none" viewBox="0 0 24 24"><path fill="#313234" fill-rule="evenodd" d="M16 3a1 1 0 1 1 2 0v8a1 1 0 1 1-2 0zm-3 2a1 1 0 1 1 2 0v4a1 1 0 1 1-2 0zm7 0a1 1 0 0 0-1 1v2a1 1 0 1 0 2 0V6a1 1 0 0 0-1-1M7.75 16.253C2.587 11.088 2.587 6.57 4.2 4.955c.968-.969 2.384-1.231 3.228-.646.775.517 1.937 1.974 1.937 3.228 0 .757-.558 1.407-1.018 1.943-.325.379-.601.701-.596.963.012.631.707 2.275 2.121 3.689s3.058 2.109 3.69 2.121c.261.005.583-.27.962-.596.536-.46 1.187-1.018 1.943-1.018 1.254 0 2.711 1.162 3.228 1.937.585.844.323 2.26-.646 3.228-1.614 1.614-6.133 1.614-11.298-3.55" clip-rule="evenodd"/></svg>
